Images/svg/Polygon1.svg

<svg width="166" height="219" viewBox="0 0 166 219" fill="none" xmlns="http://www.w3.org/2000/svg">
<path d="M145.707 116.223L149.568 109.5L145.707 102.777L98.7068 20.9374L94.8149 14.1606L87 14.1606L-7 14.1606L-14.8149 14.1606L-18.7068 20.9374L-65.7068 102.777L-69.5679 109.5L-65.7068 116.223L-18.7068 198.063L-14.8149 204.839H-7L87 204.839H94.8149L98.7068 198.063L145.707 116.223Z" fill="#FFEEBB" stroke="white" stroke-width="27"/>
</svg>

<svg width="166" height="219" fill="none" xmlns="http://www.w3.org/2000/svg"><path d="M145.707 116.223l3.861-6.723-3.861-6.723-47-81.84-3.892-6.776h-109.63l-3.892 6.776-47 81.84-3.86 6.723 3.86 6.723 47 81.84 3.892 6.776h109.63l3.892-6.776 47-81.84z" fill="#FEB" stroke="#fff" stroke-width="27"/></svg>
